src/components/00-materials/images-raw/Ambulance.svg

<svg width="96" height="96" viewBox="0 0 96 96" fill="none" xmlns="http://www.w3.org/2000/svg">
<path d="M30.24 67H62.76M32 72H61H32Z" stroke="#00008F" stroke-width="2" stroke-linecap="round" stroke-linejoin="round"/>
<path d="M24 80C28.4183 80 32 76.4183 32 72C32 67.5817 28.4183 64 24 64C19.5817 64 16 67.5817 16 72C16 76.4183 19.5817 80 24 80Z" stroke="#00008F" stroke-width="2" stroke-linecap="round" stroke-linejoin="round"/>
<path d="M24 75C25.6569 75 27 73.6569 27 72C27 70.3431 25.6569 69 24 69C22.3431 69 21 70.3431 21 72C21 73.6569 22.3431 75 24 75Z" stroke="#00008F" stroke-width="2" stroke-linecap="round" stroke-linejoin="round"/>
<path d="M69 80C73.4183 80 77 76.4183 77 72C77 67.5817 73.4183 64 69 64C64.5817 64 61 67.5817 61 72C61 76.4183 64.5817 80 69 80Z" stroke="#00008F" stroke-width="2" stroke-linecap="round" stroke-linejoin="round"/>
<path d="M69 75C70.6569 75 72 73.6569 72 72C72 70.3431 70.6569 69 69 69C67.3431 69 66 70.3431 66 72C66 73.6569 67.3431 75 69 75Z" stroke="#00008F" stroke-width="2" stroke-linecap="round" stroke-linejoin="round"/>
<path d="M87 67V54L81.64 36.58C80.8751 34.0915 79.331 31.9145 77.2354 30.3698C75.1398 28.8251 72.6034 27.9944 70 28H57V67M77 72H86.5C87.163 72 87.7989 71.7366 88.2678 71.2678C88.7366 70.799 89 70.1631 89 69.5C89 68.837 88.7366 68.2011 88.2678 67.7323C87.7989 67.2634 87.163 67 86.5 67H75.24L77 72ZM16 72H10.5C9.83696 72 9.20107 71.7366 8.73223 71.2678C8.26339 70.799 8 70.1631 8 69.5C8 68.837 8.26339 68.2011 8.73223 67.7323C9.20107 67.2634 9.83696 67 10.5 67H17.76L16 72Z" stroke="#00008F" stroke-width="2" stroke-linecap="round" stroke-linejoin="round"/>
<path d="M65 54H67M10 67V28C10 26.6739 10.5268 25.4021 11.4645 24.4645C12.4021 23.5268 13.6739 23 15 23H52C53.3261 23 54.5979 23.5268 55.5355 24.4645C56.4732 25.4021 57 26.6739 57 28M87 56H84C83.2044 56 82.4413 56.3161 81.8787 56.8787C81.3161 57.4413 81 58.2044 81 59C81 59.7956 81.3161 60.5587 81.8787 61.1213C82.4413 61.6839 83.2044 62 84 62H87M84.85 49H68.85C68.2155 49.0066 67.5859 48.8873 66.9978 48.6491C66.4096 48.4108 65.8745 48.0583 65.4235 47.6119C64.9725 47.1655 64.6144 46.6341 64.3701 46.0485C64.1258 45.4629 64 44.8346 64 44.2V36C64 35.4696 64.2107 34.9609 64.5858 34.5858C64.9609 34.2107 65.4696 34 66 34H80.5L84.85 49Z" stroke="#00008F" stroke-width="2" stroke-linecap="round" stroke-linejoin="round"/>
<path d="M63 28V27C63 25.9391 63.4214 24.9217 64.1716 24.1716C64.9217 23.4214 65.9391 23 67 23C68.0609 23 69.0783 23.4214 69.8284 24.1716C70.5786 24.9217 71 25.9391 71 27V28M44 41H38V35C38 34.7348 37.8946 34.4804 37.7071 34.2929C37.5196 34.1054 37.2652 34 37 34H31C30.7348 34 30.4804 34.1054 30.2929 34.2929C30.1054 34.4804 30 34.7348 30 35V41H24C23.7348 41 23.4804 41.1054 23.2929 41.2929C23.1054 41.4804 23 41.7348 23 42V48C23 48.2652 23.1054 48.5196 23.2929 48.7071C23.4804 48.8946 23.7348 49 24 49H30V55C30 55.2652 30.1054 55.5196 30.2929 55.7071C30.4804 55.8946 30.7348 56 31 56H37C37.2652 56 37.5196 55.8946 37.7071 55.7071C37.8946 55.5196 38 55.2652 38 55V49H44C44.2652 49 44.5196 48.8946 44.7071 48.7071C44.8946 48.5196 45 48.2652 45 48V42C45 41.7348 44.8946 41.4804 44.7071 41.2929C44.5196 41.1054 44.2652 41 44 41Z" stroke="#00008F" stroke-width="2" stroke-linecap="round" stroke-linejoin="round"/>
</svg>

<svg width="96" height="96" viewBox="0 0 96 96" fill="none" xmlns="http://www.w3.org/2000/svg"><path d="M30.24 67h32.52M32 72h29-29zM24 80a8 8 0 100-16 8 8 0 000 16z" stroke="#00008F" stroke-width="2" stroke-linecap="round" stroke-linejoin="round"/><path d="M24 75a3 3 0 100-6 3 3 0 000 6zM69 80a8 8 0 100-16 8 8 0 000 16z" stroke="#00008F" stroke-width="2" stroke-linecap="round" stroke-linejoin="round"/><path d="M69 75a3 3 0 100-6 3 3 0 000 6zM87 67V54l-5.36-17.42A12.15 12.15 0 0070 28H57v39m20 5h9.5a2.5 2.5 0 000-5H75.24L77 72zm-61 0h-5.5a2.5 2.5 0 010-5h7.26L16 72z" stroke="#00008F" stroke-width="2" stroke-linecap="round" stroke-linejoin="round"/><path d="M65 54h2M10 67V28a5 5 0 015-5h37a5 5 0 015 5m30 28h-3a3 3 0 000 6h3m-2.15-13h-16A4.801 4.801 0 0164 44.2V36a2 2 0 012-2h14.5l4.35 15z" stroke="#00008F" stroke-width="2" stroke-linecap="round" stroke-linejoin="round"/><path d="M63 28v-1a4 4 0 118 0v1M44 41h-6v-6a1 1 0 00-1-1h-6a1 1 0 00-1 1v6h-6a1 1 0 00-1 1v6a1 1 0 001 1h6v6a1 1 0 001 1h6a1 1 0 001-1v-6h6a1 1 0 001-1v-6a1 1 0 00-1-1z" stroke="#00008F" stroke-width="2" stroke-linecap="round" stroke-linejoin="round"/></svg>
